images/color/svg/203c.svg

<svg id="emoji" viewBox="0 0 72 72" xmlns="http://www.w3.org/2000/svg">
  <g id="color">
    <ellipse cx="26.6691" cy="59.4355" rx="3" ry="3.0228" fill="#d22f27"/>
    <path fill="#d22f27" d="M26.5691,49.964a2.4852,2.4852,0,0,1-2.5-2.519V11.9773a2.5,2.5,0,1,1,5,0V47.445A2.4852,2.4852,0,0,1,26.5691,49.964Z"/>
    <ellipse cx="45.3309" cy="59.4355" rx="3" ry="3.0228" fill="#d22f27"/>
    <path fill="#d22f27" d="M45.2309,49.964a2.4852,2.4852,0,0,1-2.5-2.519V11.9773a2.5,2.5,0,1,1,5,0V47.445A2.4852,2.4852,0,0,1,45.2309,49.964Z"/>
  </g>
  <g id="line">
    <ellipse cx="26.6691" cy="60.081" rx="3" ry="3.0228" fill="none" stroke="#000" stroke-linecap="round" stroke-linejoin="round" stroke-width="2"/>
    <ellipse cx="45.3309" cy="60.081" rx="3" ry="3.0228" fill="none" stroke="#000" stroke-linecap="round" stroke-linejoin="round" stroke-width="2"/>
    <path fill="none" stroke="#000" stroke-linecap="round" stroke-linejoin="round" stroke-width="2" d="M26.6691,49.964a2.4852,2.4852,0,0,1-2.5-2.519V11.9773a2.5,2.5,0,1,1,5,0V47.445A2.4852,2.4852,0,0,1,26.6691,49.964Z"/>
    <path fill="none" stroke="#000" stroke-linecap="round" stroke-linejoin="round" stroke-width="2" d="M45.3309,49.964a2.4852,2.4852,0,0,1-2.5-2.519V11.9773a2.5,2.5,0,1,1,5,0V47.445A2.4852,2.4852,0,0,1,45.3309,49.964Z"/>
  </g>
</svg>

<svg viewBox="0 0 72 72" xmlns="http://www.w3.org/2000/svg"><g fill="#d22f27"><ellipse cx="26.669" cy="59.435" rx="3" ry="3.023"/><path d="M26.57 49.964a2.485 2.485 0 0 1-2.5-2.519V11.977a2.5 2.5 0 1 1 5 0v35.468a2.485 2.485 0 0 1-2.5 2.519z"/><ellipse cx="45.331" cy="59.435" rx="3" ry="3.023"/><path d="M45.23 49.964a2.485 2.485 0 0 1-2.5-2.519V11.977a2.5 2.5 0 1 1 5 0v35.468a2.485 2.485 0 0 1-2.5 2.519z"/></g><g fill="none" stroke="#000" stroke-linecap="round" stroke-linejoin="round" stroke-width="2"><ellipse cx="26.669" cy="60.081" rx="3" ry="3.023"/><ellipse cx="45.331" cy="60.081" rx="3" ry="3.023"/><path d="M26.67 49.964a2.485 2.485 0 0 1-2.5-2.519V11.977a2.5 2.5 0 1 1 5 0v35.468a2.485 2.485 0 0 1-2.5 2.519zm18.66 0a2.485 2.485 0 0 1-2.5-2.519V11.977a2.5 2.5 0 1 1 5 0v35.468a2.485 2.485 0 0 1-2.5 2.519z"/></g></svg>
